icons/cssmap.svg

<svg xmlns="http://www.w3.org/2000/svg" id="Calque_1" data-name="Calque 1" viewBox="0 0 16 16"><defs><style>.cls-1{fill:#0086f1}</style></defs><path d="M8.78 4.35a.86.86 0 0 0 0 .15H3.5v-2h5.78a3.59 3.59 0 0 0-.5 1.85ZM11.15 4.35a1.35 1.35 0 0 0 1.35 1.36v3.7A25.19 25.19 0 0 1 10.31 6h.19V4.5h-.7a.39.39 0 0 1 0-.15 2.65 2.65 0 0 1 .73-1.85h2V3a1.35 1.35 0 0 0-1.38 1.35ZM10.3 8H3.5V6h5.7q.09.21.21.45C9.67 7 10 7.51 10.3 8ZM12.5 11.05v.45L8 14l-4.5-2.5v-2h2v1L8 12l2.5-1.5V8.31c.62.94 1.17 1.66 1.21 1.71Z" class="cls-1"/><path d="M12.5 1.63a2.7 2.7 0 0 0-2 .87 2.65 2.65 0 0 0-.73 1.85.39.39 0 0 0 0 .15 4.43 4.43 0 0 0 .54 1.5 25.19 25.19 0 0 0 2.19 3.41s2.72-3.55 2.72-5.06a2.72 2.72 0 0 0-2.72-2.72Zm0 4.08a1.36 1.36 0 1 1 1.35-1.36 1.35 1.35 0 0 1-1.35 1.36Z" style="fill:#fff"/><path d="M12.5 1.63a2.7 2.7 0 0 0-2 .87 2.65 2.65 0 0 0-.73 1.85.39.39 0 0 0 0 .15 4.43 4.43 0 0 0 .54 1.5 25.19 25.19 0 0 0 2.19 3.41s2.72-3.55 2.72-5.06a2.72 2.72 0 0 0-2.72-2.72Zm0 4.08a1.36 1.36 0 1 1 1.35-1.36 1.35 1.35 0 0 1-1.35 1.36Z" style="fill:#f15a24"/></svg>

<svg id="Calque_1" data-name="Calque 1" xmlns="http://www.w3.org/2000/svg" viewBox="0 0 16 16"><defs><style>.cls-1{fill:#0086f1;}.cls-2{fill:#fff;}.cls-3{fill:#f15a24;}</style></defs><path class="cls-1" d="M8.78,4.35a.86.86,0,0,0,0,.15H3.5v-2H9.28A3.59,3.59,0,0,0,8.78,4.35Z"/><path class="cls-1" d="M11.15,4.35A1.35,1.35,0,0,0,12.5,5.71v3.7A25.19,25.19,0,0,1,10.31,6h.19V4.5H9.8a.39.39,0,0,1,0-.15,2.65,2.65,0,0,1,.73-1.85h2V3A1.35,1.35,0,0,0,11.15,4.35Z"/><path class="cls-1" d="M10.3,8H3.5V6H9.2q.09.21.21.45C9.67,7,10,7.51,10.3,8Z"/><path class="cls-1" d="M12.5,11.05v.45L8,14,3.5,11.5v-2h2v1L8,12l2.5-1.5V8.31c.62.94,1.17,1.66,1.21,1.71Z"/><path class="cls-2" d="M12.5,1.63a2.7,2.7,0,0,0-2,.87,2.65,2.65,0,0,0-.73,1.85.39.39,0,0,0,0,.15A4.43,4.43,0,0,0,10.31,6,25.19,25.19,0,0,0,12.5,9.41s2.72-3.55,2.72-5.06A2.72,2.72,0,0,0,12.5,1.63Zm0,4.08a1.36,1.36,0,1,1,1.35-1.36A1.35,1.35,0,0,1,12.5,5.71Z"/><path class="cls-3" d="M12.5,1.63a2.7,2.7,0,0,0-2,.87,2.65,2.65,0,0,0-.73,1.85.39.39,0,0,0,0,.15A4.43,4.43,0,0,0,10.31,6,25.19,25.19,0,0,0,12.5,9.41s2.72-3.55,2.72-5.06A2.72,2.72,0,0,0,12.5,1.63Zm0,4.08a1.36,1.36,0,1,1,1.35-1.36A1.35,1.35,0,0,1,12.5,5.71Z"/></svg>
